X: 2
T: Steer Her Up
M: 2/4
L: 1/8
R: polka
K: D Major
|: AB/c/ |\
d2 f/g/f/e/ | df A>G | FA AG/F/ | Ec AB/c/ |
d2 f>e | df Ag | Bg e/d/c | d2 :|
|: c/B/G/E/ |\
dA FA | dA/A/ F2 | Ec ce | GA/G/ c/B/G/E/ |
d>A FA | dA/A/ F>g | f/e/d/f/ e/d/c | d2 :|
